X:7868
T:Livet i Finnskogarne
C:anon.
O:Sweden
A:Finnskogarne
N:After Carl Jularbo and Herman Gellin
R:Vals
Z:Transcribed by Frank Nordberg - http://www.musicaviva.com
F:http://abc.musicaviva.com/tunes/sweden/livet-i-finnskogarne.abc
M:3/4
L:1/8
K:D
(3FAF|"D"D3FAd|"D"f3dAF|"G"G3Bdg|"G"b6|
"A7"a3gec|"A7"A3ceg|"D"f3dAF|"D"D4 (3FAF|
"D"D3FAd|"D"f3dAF|"G"G3Bdg|"G"b6|
"A7"a3gec|"A7"A3gec|"D"d2 zd/d/d2|"D"d4:|
|:A2|"D"f6|"D"g2(3fgfe2|"G"d4(3BdB|"D"A6|
"A7"a3gec|"A7"A3ceg|"D"f3dAF|"D"D6|
"D"f6|"D"g2(3fgfe2|"G"d4(3BdB|"D"A6|
"A7"a3gec|"A7"A3gec|"D"d2 zd/d/d2|"D"d4:|
K:G
|:D2|"G"B6|(3BcBA2G2|"D7"F4A2|"D7"c6|
W:Trio
"D7"d3ed2|"D7"(3cdc (3BcBA2|"G"g2(3fgfe2|"G"d4D2|
"G"B6|(3BcBA2G2|"D7"F4A2|"D7"c6|
"D7"d3ed2|"D7"(3cdcB2A2|"G"G2zg/g/g2|g4:|
W:
W:
W:  From Musica Viva - http://www.musicaviva.com
W:  the Internet center for free sheet music downloads.
